(Exported by FreeCAD)
(Post Processor: script_module)
(Output Time:2025-04-20 21:42:12.461736)
(Begin preamble)
G17 G90
G21
(Begin operation: Fixture)
(Path: Fixture)
G54
(Finish operation: Fixture)
(Begin operation: TC: 3.17mm_Endmill)
(Path: TC: 3.17mm_Endmill)
(TC: 3.17mm_Endmill)
(Begin toolchange)
( M6 T10 )
M3 S500
(Finish operation: TC: 3.17mm_Endmill)
(Begin operation: Holes)
(Path: Holes)
(Holes)
(Compensated Tool Path. Diameter: 3.17)
G0 Z5.000
G0 X15.925 Y15.924
G0 Z3.000
G1 X15.925 Y15.924 Z-3.170 F250.000
G2 X15.336 Y13.196 Z-3.170 I-1.174 J-1.174 K0.000 F500.000
G1 X15.109 Y13.128 Z-3.170 F500.000
G2 X14.380 Y16.369 Z-3.170 I-0.358 J1.622 K0.000 F500.000
G2 X15.925 Y15.924 Z-3.170 I0.370 J-1.619 K0.000 F500.000
G1 X15.925 Y15.924 Z-6.340 F250.000
G2 X15.336 Y13.196 Z-6.340 I-1.174 J-1.174 K0.000 F500.000
G1 X15.109 Y13.128 Z-6.340 F500.000
G2 X14.380 Y16.369 Z-6.340 I-0.358 J1.622 K0.000 F500.000
G2 X15.925 Y15.924 Z-6.340 I0.370 J-1.619 K0.000 F500.000
G1 X15.925 Y15.924 Z-9.510 F250.000
G2 X15.336 Y13.196 Z-9.510 I-1.174 J-1.174 K0.000 F500.000
G1 X15.109 Y13.128 Z-9.510 F500.000
G2 X14.380 Y16.369 Z-9.510 I-0.358 J1.622 K0.000 F500.000
G2 X15.925 Y15.924 Z-9.510 I0.370 J-1.619 K0.000 F500.000
G1 X15.925 Y15.924 Z-10.000 F250.000
G2 X15.336 Y13.196 Z-10.000 I-1.174 J-1.174 K0.000 F500.000
G1 X15.109 Y13.128 Z-10.000 F500.000
G2 X14.380 Y16.369 Z-10.000 I-0.358 J1.622 K0.000 F500.000
G2 X15.925 Y15.924 Z-10.000 I0.370 J-1.619 K0.000 F500.000
G0 Z5.000
G0 Z5.000
G0 X15.925 Y15.924
G0 X14.790 Y63.090
G0 X14.790 Y63.090 Z3.000
G1 X14.790 Y63.090 Z-3.170 F250.000
G2 X14.391 Y66.372 Z-3.170 I-0.040 J1.660 K0.000 F500.000
G2 X15.120 Y63.131 Z-3.170 I0.358 J-1.622 K0.000 F500.000
G2 X14.790 Y63.090 Z-3.170 I-0.370 J1.619 K0.000 F500.000
G1 X14.790 Y63.090 Z-6.340 F250.000
G2 X14.391 Y66.372 Z-6.340 I-0.040 J1.660 K0.000 F500.000
G2 X15.120 Y63.131 Z-6.340 I0.358 J-1.622 K0.000 F500.000
G2 X14.790 Y63.090 Z-6.340 I-0.370 J1.619 K0.000 F500.000
G1 X14.790 Y63.090 Z-9.510 F250.000
G2 X14.391 Y66.372 Z-9.510 I-0.040 J1.660 K0.000 F500.000
G2 X15.120 Y63.131 Z-9.510 I0.358 J-1.622 K0.000 F500.000
G2 X14.790 Y63.090 Z-9.510 I-0.370 J1.619 K0.000 F500.000
G1 X14.790 Y63.090 Z-10.000 F250.000
G2 X14.391 Y66.372 Z-10.000 I-0.040 J1.660 K0.000 F500.000
G2 X15.120 Y63.131 Z-10.000 I0.358 J-1.622 K0.000 F500.000
G2 X14.790 Y63.090 Z-10.000 I-0.370 J1.619 K0.000 F500.000
G0 Z5.000
G0 Z5.000
G0 X14.790 Y63.090
G0 X14.751 Y113.089
G0 X14.751 Y113.089 Z3.000
G1 X14.751 Y113.089 Z-3.170 F250.000
G2 X14.391 Y116.372 Z-3.170 I-0.001 J1.661 K0.000 F500.000
G2 X15.120 Y113.131 Z-3.170 I0.358 J-1.622 K0.000 F500.000
G2 X14.751 Y113.089 Z-3.170 I-0.370 J1.619 K0.000 F500.000
G1 X14.751 Y113.089 Z-6.340 F250.000
G2 X14.391 Y116.372 Z-6.340 I-0.001 J1.661 K0.000 F500.000
G2 X15.120 Y113.131 Z-6.340 I0.358 J-1.622 K0.000 F500.000
G2 X14.751 Y113.089 Z-6.340 I-0.370 J1.619 K0.000 F500.000
G1 X14.751 Y113.089 Z-9.510 F250.000
G2 X14.391 Y116.372 Z-9.510 I-0.001 J1.661 K0.000 F500.000
G2 X15.120 Y113.131 Z-9.510 I0.358 J-1.622 K0.000 F500.000
G2 X14.751 Y113.089 Z-9.510 I-0.370 J1.619 K0.000 F500.000
G1 X14.751 Y113.089 Z-10.000 F250.000
G2 X14.391 Y116.372 Z-10.000 I-0.001 J1.661 K0.000 F500.000
G2 X15.120 Y113.131 Z-10.000 I0.358 J-1.622 K0.000 F500.000
G2 X14.751 Y113.089 Z-10.000 I-0.370 J1.619 K0.000 F500.000
G0 Z5.000
G0 Z5.000
G0 X14.751 Y113.089
G0 X14.750 Y163.089
G0 X14.750 Y163.089 Z3.000
G1 X14.750 Y163.089 Z-3.170 F250.000
G2 X14.391 Y166.372 Z-3.170 I-0.000 J1.661 K0.000 F500.000
G2 X15.109 Y163.128 Z-3.170 I0.359 J-1.622 K0.000 F500.000
G2 X14.750 Y163.089 Z-3.170 I-0.359 J1.622 K0.000 F500.000
G1 X14.750 Y163.089 Z-6.340 F250.000
G2 X14.391 Y166.372 Z-6.340 I-0.000 J1.661 K0.000 F500.000
G2 X15.109 Y163.128 Z-6.340 I0.359 J-1.622 K0.000 F500.000
G2 X14.750 Y163.089 Z-6.340 I-0.359 J1.622 K0.000 F500.000
G1 X14.750 Y163.089 Z-9.510 F250.000
G2 X14.391 Y166.372 Z-9.510 I-0.000 J1.661 K0.000 F500.000
G2 X15.109 Y163.128 Z-9.510 I0.359 J-1.622 K0.000 F500.000
G2 X14.750 Y163.089 Z-9.510 I-0.359 J1.622 K0.000 F500.000
G1 X14.750 Y163.089 Z-10.000 F250.000
G2 X14.391 Y166.372 Z-10.000 I-0.000 J1.661 K0.000 F500.000
G2 X15.109 Y163.128 Z-10.000 I0.359 J-1.622 K0.000 F500.000
G2 X14.750 Y163.089 Z-10.000 I-0.359 J1.622 K0.000 F500.000
G0 Z5.000
G0 Z5.000
G0 X14.750 Y163.089
G0 X67.090 Y164.699
G0 X67.090 Y164.699 Z3.000
G1 X67.090 Y164.699 Z-3.170 F250.000
G2 X68.380 Y166.369 Z-3.170 I1.660 J0.051 K0.000 F500.000
G2 X69.336 Y163.196 Z-3.170 I0.370 J-1.619 K0.000 F500.000
G1 X69.109 Y163.128 Z-3.170 F500.000
G2 X67.090 Y164.699 Z-3.170 I-0.358 J1.622 K0.000 F500.000
G1 X67.090 Y164.699 Z-6.340 F250.000
G2 X68.380 Y166.369 Z-6.340 I1.660 J0.051 K0.000 F500.000
G2 X69.336 Y163.196 Z-6.340 I0.370 J-1.619 K0.000 F500.000
G1 X69.109 Y163.128 Z-6.340 F500.000
G2 X67.090 Y164.699 Z-6.340 I-0.358 J1.622 K0.000 F500.000
G1 X67.090 Y164.699 Z-9.510 F250.000
G2 X68.380 Y166.369 Z-9.510 I1.660 J0.051 K0.000 F500.000
G2 X69.336 Y163.196 Z-9.510 I0.370 J-1.619 K0.000 F500.000
G1 X69.109 Y163.128 Z-9.510 F500.000
G2 X67.090 Y164.699 Z-9.510 I-0.358 J1.622 K0.000 F500.000
G1 X67.090 Y164.699 Z-10.000 F250.000
G2 X68.380 Y166.369 Z-10.000 I1.660 J0.051 K0.000 F500.000
G2 X69.336 Y163.196 Z-10.000 I0.370 J-1.619 K0.000 F500.000
G1 X69.109 Y163.128 Z-10.000 F500.000
G2 X67.090 Y164.699 Z-10.000 I-0.358 J1.622 K0.000 F500.000
G0 Z5.000
G0 Z5.000
G0 X67.090 Y164.699
G0 X68.695 Y116.410
G0 X68.695 Y116.410 Z3.000
G1 X68.695 Y116.410 Z-3.170 F250.000
G2 X69.109 Y113.128 Z-3.170 I0.055 J-1.660 K0.000 F500.000
G2 X67.128 Y114.391 Z-3.170 I-0.359 J1.622 K0.000 F500.000
G2 X68.391 Y116.372 Z-3.170 I1.622 J0.359 K0.000 F500.000
G2 X68.695 Y116.410 Z-3.170 I0.359 J-1.622 K0.000 F500.000
G1 X68.695 Y116.410 Z-6.340 F250.000
G2 X69.109 Y113.128 Z-6.340 I0.055 J-1.660 K0.000 F500.000
G2 X67.128 Y114.391 Z-6.340 I-0.359 J1.622 K0.000 F500.000
G2 X68.391 Y116.372 Z-6.340 I1.622 J0.359 K0.000 F500.000
G2 X68.695 Y116.410 Z-6.340 I0.359 J-1.622 K0.000 F500.000
G1 X68.695 Y116.410 Z-9.510 F250.000
G2 X69.109 Y113.128 Z-9.510 I0.055 J-1.660 K0.000 F500.000
G2 X67.128 Y114.391 Z-9.510 I-0.359 J1.622 K0.000 F500.000
G2 X68.391 Y116.372 Z-9.510 I1.622 J0.359 K0.000 F500.000
G2 X68.695 Y116.410 Z-9.510 I0.359 J-1.622 K0.000 F500.000
G1 X68.695 Y116.410 Z-10.000 F250.000
G2 X69.109 Y113.128 Z-10.000 I0.055 J-1.660 K0.000 F500.000
G2 X67.128 Y114.391 Z-10.000 I-0.359 J1.622 K0.000 F500.000
G2 X68.391 Y116.372 Z-10.000 I1.622 J0.359 K0.000 F500.000
G2 X68.695 Y116.410 Z-10.000 I0.359 J-1.622 K0.000 F500.000
G0 Z5.000
G0 Z5.000
G0 X68.695 Y116.410
G0 X68.748 Y66.411
G0 X68.748 Y66.411 Z3.000
G1 X68.748 Y66.411 Z-3.170 F250.000
G2 X69.109 Y63.128 Z-3.170 I0.002 J-1.661 K0.000 F500.000
G2 X67.128 Y64.391 Z-3.170 I-0.359 J1.622 K0.000 F500.000
G2 X68.391 Y66.372 Z-3.170 I1.622 J0.359 K0.000 F500.000
G2 X68.748 Y66.411 Z-3.170 I0.359 J-1.622 K0.000 F500.000
G1 X68.748 Y66.411 Z-6.340 F250.000
G2 X69.109 Y63.128 Z-6.340 I0.002 J-1.661 K0.000 F500.000
G2 X67.128 Y64.391 Z-6.340 I-0.359 J1.622 K0.000 F500.000
G2 X68.391 Y66.372 Z-6.340 I1.622 J0.359 K0.000 F500.000
G2 X68.748 Y66.411 Z-6.340 I0.359 J-1.622 K0.000 F500.000
G1 X68.748 Y66.411 Z-9.510 F250.000
G2 X69.109 Y63.128 Z-9.510 I0.002 J-1.661 K0.000 F500.000
G2 X67.128 Y64.391 Z-9.510 I-0.359 J1.622 K0.000 F500.000
G2 X68.391 Y66.372 Z-9.510 I1.622 J0.359 K0.000 F500.000
G2 X68.748 Y66.411 Z-9.510 I0.359 J-1.622 K0.000 F500.000
G1 X68.748 Y66.411 Z-10.000 F250.000
G2 X69.109 Y63.128 Z-10.000 I0.002 J-1.661 K0.000 F500.000
G2 X67.128 Y64.391 Z-10.000 I-0.359 J1.622 K0.000 F500.000
G2 X68.391 Y66.372 Z-10.000 I1.622 J0.359 K0.000 F500.000
G2 X68.748 Y66.411 Z-10.000 I0.359 J-1.622 K0.000 F500.000
G0 Z5.000
G0 Z5.000
G0 X68.748 Y66.411
G0 X68.750 Y16.411
G0 X68.750 Y16.411 Z3.000
G1 X68.750 Y16.411 Z-3.170 F250.000
G2 X69.109 Y13.128 Z-3.170 I0.000 J-1.661 K0.000 F500.000
G2 X67.128 Y14.391 Z-3.170 I-0.359 J1.622 K0.000 F500.000
G2 X68.391 Y16.372 Z-3.170 I1.622 J0.359 K0.000 F500.000
G2 X68.750 Y16.411 Z-3.170 I0.359 J-1.622 K0.000 F500.000
G1 X68.750 Y16.411 Z-6.340 F250.000
G2 X69.109 Y13.128 Z-6.340 I0.000 J-1.661 K0.000 F500.000
G2 X67.128 Y14.391 Z-6.340 I-0.359 J1.622 K0.000 F500.000
G2 X68.391 Y16.372 Z-6.340 I1.622 J0.359 K0.000 F500.000
G2 X68.750 Y16.411 Z-6.340 I0.359 J-1.622 K0.000 F500.000
G1 X68.750 Y16.411 Z-9.510 F250.000
G2 X69.109 Y13.128 Z-9.510 I0.000 J-1.661 K0.000 F500.000
G2 X67.128 Y14.391 Z-9.510 I-0.359 J1.622 K0.000 F500.000
G2 X68.391 Y16.372 Z-9.510 I1.622 J0.359 K0.000 F500.000
G2 X68.750 Y16.411 Z-9.510 I0.359 J-1.622 K0.000 F500.000
G1 X68.750 Y16.411 Z-10.000 F250.000
G2 X69.109 Y13.128 Z-10.000 I0.000 J-1.661 K0.000 F500.000
G2 X67.128 Y14.391 Z-10.000 I-0.359 J1.622 K0.000 F500.000
G2 X68.391 Y16.372 Z-10.000 I1.622 J0.359 K0.000 F500.000
G2 X68.750 Y16.411 Z-10.000 I0.359 J-1.622 K0.000 F500.000
G0 Z5.000
G0 Z5.000
G0 X68.750 Y16.411
G0 X121.090 Y14.801
G0 X121.090 Y14.801 Z3.000
G1 X121.090 Y14.801 Z-3.170 F250.000
G2 X122.391 Y16.372 Z-3.170 I1.660 J-0.051 K0.000 F500.000
G2 X123.120 Y13.131 Z-3.170 I0.358 J-1.622 K0.000 F500.000
G2 X121.090 Y14.801 Z-3.170 I-0.370 J1.619 K0.000 F500.000
G1 X121.090 Y14.801 Z-6.340 F250.000
G2 X122.391 Y16.372 Z-6.340 I1.660 J-0.051 K0.000 F500.000
G2 X123.120 Y13.131 Z-6.340 I0.358 J-1.622 K0.000 F500.000
G2 X121.090 Y14.801 Z-6.340 I-0.370 J1.619 K0.000 F500.000
G1 X121.090 Y14.801 Z-9.510 F250.000
G2 X122.391 Y16.372 Z-9.510 I1.660 J-0.051 K0.000 F500.000
G2 X123.120 Y13.131 Z-9.510 I0.358 J-1.622 K0.000 F500.000
G2 X121.090 Y14.801 Z-9.510 I-0.370 J1.619 K0.000 F500.000
G1 X121.090 Y14.801 Z-10.000 F250.000
G2 X122.391 Y16.372 Z-10.000 I1.660 J-0.051 K0.000 F500.000
G2 X123.120 Y13.131 Z-10.000 I0.358 J-1.622 K0.000 F500.000
G2 X121.090 Y14.801 Z-10.000 I-0.370 J1.619 K0.000 F500.000
G0 Z5.000
G0 Z5.000
G0 X121.090 Y14.801
G0 X122.695 Y63.090
G0 X122.695 Y63.090 Z3.000
G1 X122.695 Y63.090 Z-3.170 F250.000
G2 X122.391 Y66.372 Z-3.170 I0.055 J1.660 K0.000 F500.000
G2 X123.120 Y63.131 Z-3.170 I0.358 J-1.622 K0.000 F500.000
G2 X122.695 Y63.090 Z-3.170 I-0.370 J1.619 K0.000 F500.000
G1 X122.695 Y63.090 Z-6.340 F250.000
G2 X122.391 Y66.372 Z-6.340 I0.055 J1.660 K0.000 F500.000
G2 X123.120 Y63.131 Z-6.340 I0.358 J-1.622 K0.000 F500.000
G2 X122.695 Y63.090 Z-6.340 I-0.370 J1.619 K0.000 F500.000
G1 X122.695 Y63.090 Z-9.510 F250.000
G2 X122.391 Y66.372 Z-9.510 I0.055 J1.660 K0.000 F500.000
G2 X123.120 Y63.131 Z-9.510 I0.358 J-1.622 K0.000 F500.000
G2 X122.695 Y63.090 Z-9.510 I-0.370 J1.619 K0.000 F500.000
G1 X122.695 Y63.090 Z-10.000 F250.000
G2 X122.391 Y66.372 Z-10.000 I0.055 J1.660 K0.000 F500.000
G2 X123.120 Y63.131 Z-10.000 I0.358 J-1.622 K0.000 F500.000
G2 X122.695 Y63.090 Z-10.000 I-0.370 J1.619 K0.000 F500.000
G0 Z5.000
G0 Z5.000
G0 X122.695 Y63.090
G0 X122.748 Y113.089
G0 X122.748 Y113.089 Z3.000
G1 X122.748 Y113.089 Z-3.170 F250.000
G2 X122.391 Y116.372 Z-3.170 I0.002 J1.661 K0.000 F500.000
G2 X123.120 Y113.131 Z-3.170 I0.358 J-1.622 K0.000 F500.000
G2 X122.748 Y113.089 Z-3.170 I-0.370 J1.619 K0.000 F500.000
G1 X122.748 Y113.089 Z-6.340 F250.000
G2 X122.391 Y116.372 Z-6.340 I0.002 J1.661 K0.000 F500.000
G2 X123.120 Y113.131 Z-6.340 I0.358 J-1.622 K0.000 F500.000
G2 X122.748 Y113.089 Z-6.340 I-0.370 J1.619 K0.000 F500.000
G1 X122.748 Y113.089 Z-9.510 F250.000
G2 X122.391 Y116.372 Z-9.510 I0.002 J1.661 K0.000 F500.000
G2 X123.120 Y113.131 Z-9.510 I0.358 J-1.622 K0.000 F500.000
G2 X122.748 Y113.089 Z-9.510 I-0.370 J1.619 K0.000 F500.000
G1 X122.748 Y113.089 Z-10.000 F250.000
G2 X122.391 Y116.372 Z-10.000 I0.002 J1.661 K0.000 F500.000
G2 X123.120 Y113.131 Z-10.000 I0.358 J-1.622 K0.000 F500.000
G2 X122.748 Y113.089 Z-10.000 I-0.370 J1.619 K0.000 F500.000
G0 Z5.000
G0 Z5.000
G0 X122.748 Y113.089
G0 X122.750 Y163.089
G0 X122.750 Y163.089 Z3.000
G1 X122.750 Y163.089 Z-3.170 F250.000
G2 X122.391 Y166.372 Z-3.170 I0.000 J1.661 K0.000 F500.000
G2 X123.120 Y163.131 Z-3.170 I0.358 J-1.622 K0.000 F500.000
G2 X122.750 Y163.089 Z-3.170 I-0.370 J1.619 K0.000 F500.000
G1 X122.750 Y163.089 Z-6.340 F250.000
G2 X122.391 Y166.372 Z-6.340 I0.000 J1.661 K0.000 F500.000
G2 X123.120 Y163.131 Z-6.340 I0.358 J-1.622 K0.000 F500.000
G2 X122.750 Y163.089 Z-6.340 I-0.370 J1.619 K0.000 F500.000
G1 X122.750 Y163.089 Z-9.510 F250.000
G2 X122.391 Y166.372 Z-9.510 I0.000 J1.661 K0.000 F500.000
G2 X123.120 Y163.131 Z-9.510 I0.358 J-1.622 K0.000 F500.000
G2 X122.750 Y163.089 Z-9.510 I-0.370 J1.619 K0.000 F500.000
G1 X122.750 Y163.089 Z-10.000 F250.000
G2 X122.391 Y166.372 Z-10.000 I0.000 J1.661 K0.000 F500.000
G2 X123.120 Y163.131 Z-10.000 I0.358 J-1.622 K0.000 F500.000
G2 X122.750 Y163.089 Z-10.000 I-0.370 J1.619 K0.000 F500.000
G0 Z5.000
G0 Z5.000
G0 X122.750 Y163.089
G0 X175.090 Y164.699
G0 X175.090 Y164.699 Z3.000
G1 X175.090 Y164.699 Z-3.170 F250.000
G2 X176.391 Y166.372 Z-3.170 I1.660 J0.051 K0.000 F500.000
G2 X177.109 Y163.128 Z-3.170 I0.359 J-1.622 K0.000 F500.000
G2 X175.090 Y164.699 Z-3.170 I-0.359 J1.622 K0.000 F500.000
G1 X175.090 Y164.699 Z-6.340 F250.000
G2 X176.391 Y166.372 Z-6.340 I1.660 J0.051 K0.000 F500.000
G2 X177.109 Y163.128 Z-6.340 I0.359 J-1.622 K0.000 F500.000
G2 X175.090 Y164.699 Z-6.340 I-0.359 J1.622 K0.000 F500.000
G1 X175.090 Y164.699 Z-9.510 F250.000
G2 X176.391 Y166.372 Z-9.510 I1.660 J0.051 K0.000 F500.000
G2 X177.109 Y163.128 Z-9.510 I0.359 J-1.622 K0.000 F500.000
G2 X175.090 Y164.699 Z-9.510 I-0.359 J1.622 K0.000 F500.000
G1 X175.090 Y164.699 Z-10.000 F250.000
G2 X176.391 Y166.372 Z-10.000 I1.660 J0.051 K0.000 F500.000
G2 X177.109 Y163.128 Z-10.000 I0.359 J-1.622 K0.000 F500.000
G2 X175.090 Y164.699 Z-10.000 I-0.359 J1.622 K0.000 F500.000
G0 Z5.000
G0 Z5.000
G0 X175.090 Y164.699
G0 X176.695 Y116.410
G0 X176.695 Y116.410 Z3.000
G1 X176.695 Y116.410 Z-3.170 F250.000
G2 X177.109 Y113.128 Z-3.170 I0.055 J-1.660 K0.000 F500.000
G2 X175.128 Y114.391 Z-3.170 I-0.359 J1.622 K0.000 F500.000
G2 X176.391 Y116.372 Z-3.170 I1.622 J0.359 K0.000 F500.000
G2 X176.695 Y116.410 Z-3.170 I0.359 J-1.622 K0.000 F500.000
G1 X176.695 Y116.410 Z-6.340 F250.000
G2 X177.109 Y113.128 Z-6.340 I0.055 J-1.660 K0.000 F500.000
G2 X175.128 Y114.391 Z-6.340 I-0.359 J1.622 K0.000 F500.000
G2 X176.391 Y116.372 Z-6.340 I1.622 J0.359 K0.000 F500.000
G2 X176.695 Y116.410 Z-6.340 I0.359 J-1.622 K0.000 F500.000
G1 X176.695 Y116.410 Z-9.510 F250.000
G2 X177.109 Y113.128 Z-9.510 I0.055 J-1.660 K0.000 F500.000
G2 X175.128 Y114.391 Z-9.510 I-0.359 J1.622 K0.000 F500.000
G2 X176.391 Y116.372 Z-9.510 I1.622 J0.359 K0.000 F500.000
G2 X176.695 Y116.410 Z-9.510 I0.359 J-1.622 K0.000 F500.000
G1 X176.695 Y116.410 Z-10.000 F250.000
G2 X177.109 Y113.128 Z-10.000 I0.055 J-1.660 K0.000 F500.000
G2 X175.128 Y114.391 Z-10.000 I-0.359 J1.622 K0.000 F500.000
G2 X176.391 Y116.372 Z-10.000 I1.622 J0.359 K0.000 F500.000
G2 X176.695 Y116.410 Z-10.000 I0.359 J-1.622 K0.000 F500.000
G0 Z5.000
G0 Z5.000
G0 X176.695 Y116.410
G0 X176.748 Y66.411
G0 X176.748 Y66.411 Z3.000
G1 X176.748 Y66.411 Z-3.170 F250.000
G2 X177.109 Y63.128 Z-3.170 I0.002 J-1.661 K0.000 F500.000
G2 X175.128 Y64.391 Z-3.170 I-0.359 J1.622 K0.000 F500.000
G2 X176.391 Y66.372 Z-3.170 I1.622 J0.359 K0.000 F500.000
G2 X176.748 Y66.411 Z-3.170 I0.359 J-1.622 K0.000 F500.000
G1 X176.748 Y66.411 Z-6.340 F250.000
G2 X177.109 Y63.128 Z-6.340 I0.002 J-1.661 K0.000 F500.000
G2 X175.128 Y64.391 Z-6.340 I-0.359 J1.622 K0.000 F500.000
G2 X176.391 Y66.372 Z-6.340 I1.622 J0.359 K0.000 F500.000
G2 X176.748 Y66.411 Z-6.340 I0.359 J-1.622 K0.000 F500.000
G1 X176.748 Y66.411 Z-9.510 F250.000
G2 X177.109 Y63.128 Z-9.510 I0.002 J-1.661 K0.000 F500.000
G2 X175.128 Y64.391 Z-9.510 I-0.359 J1.622 K0.000 F500.000
G2 X176.391 Y66.372 Z-9.510 I1.622 J0.359 K0.000 F500.000
G2 X176.748 Y66.411 Z-9.510 I0.359 J-1.622 K0.000 F500.000
G1 X176.748 Y66.411 Z-10.000 F250.000
G2 X177.109 Y63.128 Z-10.000 I0.002 J-1.661 K0.000 F500.000
G2 X175.128 Y64.391 Z-10.000 I-0.359 J1.622 K0.000 F500.000
G2 X176.391 Y66.372 Z-10.000 I1.622 J0.359 K0.000 F500.000
G2 X176.748 Y66.411 Z-10.000 I0.359 J-1.622 K0.000 F500.000
G0 Z5.000
G0 Z5.000
G0 X176.748 Y66.411
G0 X176.750 Y16.411
G0 X176.750 Y16.411 Z3.000
G1 X176.750 Y16.411 Z-3.170 F250.000
G2 X177.109 Y13.128 Z-3.170 I0.000 J-1.661 K0.000 F500.000
G2 X175.128 Y14.391 Z-3.170 I-0.359 J1.622 K0.000 F500.000
G2 X176.391 Y16.372 Z-3.170 I1.622 J0.359 K0.000 F500.000
G2 X176.750 Y16.411 Z-3.170 I0.359 J-1.622 K0.000 F500.000
G1 X176.750 Y16.411 Z-6.340 F250.000
G2 X177.109 Y13.128 Z-6.340 I0.000 J-1.661 K0.000 F500.000
G2 X175.128 Y14.391 Z-6.340 I-0.359 J1.622 K0.000 F500.000
G2 X176.391 Y16.372 Z-6.340 I1.622 J0.359 K0.000 F500.000
G2 X176.750 Y16.411 Z-6.340 I0.359 J-1.622 K0.000 F500.000
G1 X176.750 Y16.411 Z-9.510 F250.000
G2 X177.109 Y13.128 Z-9.510 I0.000 J-1.661 K0.000 F500.000
G2 X175.128 Y14.391 Z-9.510 I-0.359 J1.622 K0.000 F500.000
G2 X176.391 Y16.372 Z-9.510 I1.622 J0.359 K0.000 F500.000
G2 X176.750 Y16.411 Z-9.510 I0.359 J-1.622 K0.000 F500.000
G1 X176.750 Y16.411 Z-10.000 F250.000
G2 X177.109 Y13.128 Z-10.000 I0.000 J-1.661 K0.000 F500.000
G2 X175.128 Y14.391 Z-10.000 I-0.359 J1.622 K0.000 F500.000
G2 X176.391 Y16.372 Z-10.000 I1.622 J0.359 K0.000 F500.000
G2 X176.750 Y16.411 Z-10.000 I0.359 J-1.622 K0.000 F500.000
G0 Z5.000
G0 Z5.000
G0 X176.750 Y16.411
G0 X229.090 Y14.801
G0 X229.090 Y14.801 Z3.000
G1 X229.090 Y14.801 Z-3.170 F250.000
G2 X230.380 Y16.369 Z-3.170 I1.660 J-0.051 K0.000 F500.000
G2 X231.336 Y13.196 Z-3.170 I0.370 J-1.619 K0.000 F500.000
G1 X231.109 Y13.128 Z-3.170 F500.000
G2 X229.090 Y14.801 Z-3.170 I-0.358 J1.622 K0.000 F500.000
G1 X229.090 Y14.801 Z-6.340 F250.000
G2 X230.380 Y16.369 Z-6.340 I1.660 J-0.051 K0.000 F500.000
G2 X231.336 Y13.196 Z-6.340 I0.370 J-1.619 K0.000 F500.000
G1 X231.109 Y13.128 Z-6.340 F500.000
G2 X229.090 Y14.801 Z-6.340 I-0.358 J1.622 K0.000 F500.000
G1 X229.090 Y14.801 Z-9.510 F250.000
G2 X230.380 Y16.369 Z-9.510 I1.660 J-0.051 K0.000 F500.000
G2 X231.336 Y13.196 Z-9.510 I0.370 J-1.619 K0.000 F500.000
G1 X231.109 Y13.128 Z-9.510 F500.000
G2 X229.090 Y14.801 Z-9.510 I-0.358 J1.622 K0.000 F500.000
G1 X229.090 Y14.801 Z-10.000 F250.000
G2 X230.380 Y16.369 Z-10.000 I1.660 J-0.051 K0.000 F500.000
G2 X231.336 Y13.196 Z-10.000 I0.370 J-1.619 K0.000 F500.000
G1 X231.109 Y13.128 Z-10.000 F500.000
G2 X229.090 Y14.801 Z-10.000 I-0.358 J1.622 K0.000 F500.000
G0 Z5.000
G0 Z5.000
G0 X229.090 Y14.801
G0 X230.695 Y63.090
G0 X230.695 Y63.090 Z3.000
G1 X230.695 Y63.090 Z-3.170 F250.000
G2 X230.391 Y66.372 Z-3.170 I0.055 J1.660 K0.000 F500.000
G2 X231.120 Y63.131 Z-3.170 I0.358 J-1.622 K0.000 F500.000
G2 X230.695 Y63.090 Z-3.170 I-0.370 J1.619 K0.000 F500.000
G1 X230.695 Y63.090 Z-6.340 F250.000
G2 X230.391 Y66.372 Z-6.340 I0.055 J1.660 K0.000 F500.000
G2 X231.120 Y63.131 Z-6.340 I0.358 J-1.622 K0.000 F500.000
G2 X230.695 Y63.090 Z-6.340 I-0.370 J1.619 K0.000 F500.000
G1 X230.695 Y63.090 Z-9.510 F250.000
G2 X230.391 Y66.372 Z-9.510 I0.055 J1.660 K0.000 F500.000
G2 X231.120 Y63.131 Z-9.510 I0.358 J-1.622 K0.000 F500.000
G2 X230.695 Y63.090 Z-9.510 I-0.370 J1.619 K0.000 F500.000
G1 X230.695 Y63.090 Z-10.000 F250.000
G2 X230.391 Y66.372 Z-10.000 I0.055 J1.660 K0.000 F500.000
G2 X231.120 Y63.131 Z-10.000 I0.358 J-1.622 K0.000 F500.000
G2 X230.695 Y63.090 Z-10.000 I-0.370 J1.619 K0.000 F500.000
G0 Z5.000
G0 Z5.000
G0 X230.695 Y63.090
G0 X230.748 Y113.089
G0 X230.748 Y113.089 Z3.000
G1 X230.748 Y113.089 Z-3.170 F250.000
G2 X230.391 Y116.372 Z-3.170 I0.002 J1.661 K0.000 F500.000
G2 X231.120 Y113.131 Z-3.170 I0.358 J-1.622 K0.000 F500.000
G2 X230.748 Y113.089 Z-3.170 I-0.370 J1.619 K0.000 F500.000
G1 X230.748 Y113.089 Z-6.340 F250.000
G2 X230.391 Y116.372 Z-6.340 I0.002 J1.661 K0.000 F500.000
G2 X231.120 Y113.131 Z-6.340 I0.358 J-1.622 K0.000 F500.000
G2 X230.748 Y113.089 Z-6.340 I-0.370 J1.619 K0.000 F500.000
G1 X230.748 Y113.089 Z-9.510 F250.000
G2 X230.391 Y116.372 Z-9.510 I0.002 J1.661 K0.000 F500.000
G2 X231.120 Y113.131 Z-9.510 I0.358 J-1.622 K0.000 F500.000
G2 X230.748 Y113.089 Z-9.510 I-0.370 J1.619 K0.000 F500.000
G1 X230.748 Y113.089 Z-10.000 F250.000
G2 X230.391 Y116.372 Z-10.000 I0.002 J1.661 K0.000 F500.000
G2 X231.120 Y113.131 Z-10.000 I0.358 J-1.622 K0.000 F500.000
G2 X230.748 Y113.089 Z-10.000 I-0.370 J1.619 K0.000 F500.000
G0 Z5.000
G0 Z5.000
G0 X230.748 Y113.089
G0 X230.750 Y163.089
G0 X230.750 Y163.089 Z3.000
G1 X230.750 Y163.089 Z-3.170 F250.000
G2 X230.391 Y166.372 Z-3.170 I0.000 J1.661 K0.000 F500.000
G2 X231.109 Y163.128 Z-3.170 I0.359 J-1.622 K0.000 F500.000
G2 X230.750 Y163.089 Z-3.170 I-0.359 J1.622 K0.000 F500.000
G1 X230.750 Y163.089 Z-6.340 F250.000
G2 X230.391 Y166.372 Z-6.340 I0.000 J1.661 K0.000 F500.000
G2 X231.109 Y163.128 Z-6.340 I0.359 J-1.622 K0.000 F500.000
G2 X230.750 Y163.089 Z-6.340 I-0.359 J1.622 K0.000 F500.000
G1 X230.750 Y163.089 Z-9.510 F250.000
G2 X230.391 Y166.372 Z-9.510 I0.000 J1.661 K0.000 F500.000
G2 X231.109 Y163.128 Z-9.510 I0.359 J-1.622 K0.000 F500.000
G2 X230.750 Y163.089 Z-9.510 I-0.359 J1.622 K0.000 F500.000
G1 X230.750 Y163.089 Z-10.000 F250.000
G2 X230.391 Y166.372 Z-10.000 I0.000 J1.661 K0.000 F500.000
G2 X231.109 Y163.128 Z-10.000 I0.359 J-1.622 K0.000 F500.000
G2 X230.750 Y163.089 Z-10.000 I-0.359 J1.622 K0.000 F500.000
G0 Z5.000
G0 Z5.000
G0 X230.750 Y163.089
G0 X283.090 Y164.699
G0 X283.090 Y164.699 Z3.000
G1 X283.090 Y164.699 Z-3.170 F250.000
G2 X284.380 Y166.369 Z-3.170 I1.660 J0.051 K0.000 F500.000
G2 X285.336 Y163.196 Z-3.170 I0.370 J-1.619 K0.000 F500.000
G1 X285.109 Y163.128 Z-3.170 F500.000
G2 X283.090 Y164.699 Z-3.170 I-0.358 J1.622 K0.000 F500.000
G1 X283.090 Y164.699 Z-6.340 F250.000
G2 X284.380 Y166.369 Z-6.340 I1.660 J0.051 K0.000 F500.000
G2 X285.336 Y163.196 Z-6.340 I0.370 J-1.619 K0.000 F500.000
G1 X285.109 Y163.128 Z-6.340 F500.000
G2 X283.090 Y164.699 Z-6.340 I-0.358 J1.622 K0.000 F500.000
G1 X283.090 Y164.699 Z-9.510 F250.000
G2 X284.380 Y166.369 Z-9.510 I1.660 J0.051 K0.000 F500.000
G2 X285.336 Y163.196 Z-9.510 I0.370 J-1.619 K0.000 F500.000
G1 X285.109 Y163.128 Z-9.510 F500.000
G2 X283.090 Y164.699 Z-9.510 I-0.358 J1.622 K0.000 F500.000
G1 X283.090 Y164.699 Z-10.000 F250.000
G2 X284.380 Y166.369 Z-10.000 I1.660 J0.051 K0.000 F500.000
G2 X285.336 Y163.196 Z-10.000 I0.370 J-1.619 K0.000 F500.000
G1 X285.109 Y163.128 Z-10.000 F500.000
G2 X283.090 Y164.699 Z-10.000 I-0.358 J1.622 K0.000 F500.000
G0 Z5.000
G0 Z5.000
G0 X283.090 Y164.699
G0 X284.695 Y116.410
G0 X284.695 Y116.410 Z3.000
G1 X284.695 Y116.410 Z-3.170 F250.000
G2 X285.120 Y113.131 Z-3.170 I0.055 J-1.660 K0.000 F500.000
G2 X283.129 Y114.386 Z-3.170 I-0.370 J1.619 K0.000 F500.000
G2 X284.391 Y116.372 Z-3.170 I1.620 J0.364 K0.000 F500.000
G2 X284.695 Y116.410 Z-3.170 I0.358 J-1.622 K0.000 F500.000
G1 X284.695 Y116.410 Z-6.340 F250.000
G2 X285.120 Y113.131 Z-6.340 I0.055 J-1.660 K0.000 F500.000
G2 X283.129 Y114.386 Z-6.340 I-0.370 J1.619 K0.000 F500.000
G2 X284.391 Y116.372 Z-6.340 I1.620 J0.364 K0.000 F500.000
G2 X284.695 Y116.410 Z-6.340 I0.358 J-1.622 K0.000 F500.000
G1 X284.695 Y116.410 Z-9.510 F250.000
G2 X285.120 Y113.131 Z-9.510 I0.055 J-1.660 K0.000 F500.000
G2 X283.129 Y114.386 Z-9.510 I-0.370 J1.619 K0.000 F500.000
G2 X284.391 Y116.372 Z-9.510 I1.620 J0.364 K0.000 F500.000
G2 X284.695 Y116.410 Z-9.510 I0.358 J-1.622 K0.000 F500.000
G1 X284.695 Y116.410 Z-10.000 F250.000
G2 X285.120 Y113.131 Z-10.000 I0.055 J-1.660 K0.000 F500.000
G2 X283.129 Y114.386 Z-10.000 I-0.370 J1.619 K0.000 F500.000
G2 X284.391 Y116.372 Z-10.000 I1.620 J0.364 K0.000 F500.000
G2 X284.695 Y116.410 Z-10.000 I0.358 J-1.622 K0.000 F500.000
G0 Z5.000
G0 Z5.000
G0 X284.695 Y116.410
G0 X284.748 Y66.411
G0 X284.748 Y66.411 Z3.000
G1 X284.748 Y66.411 Z-3.170 F250.000
G2 X285.120 Y63.131 Z-3.170 I0.002 J-1.661 K0.000 F500.000
G2 X283.129 Y64.386 Z-3.170 I-0.370 J1.619 K0.000 F500.000
G2 X284.391 Y66.372 Z-3.170 I1.620 J0.364 K0.000 F500.000
G2 X284.748 Y66.411 Z-3.170 I0.358 J-1.622 K0.000 F500.000
G1 X284.748 Y66.411 Z-6.340 F250.000
G2 X285.120 Y63.131 Z-6.340 I0.002 J-1.661 K0.000 F500.000
G2 X283.129 Y64.386 Z-6.340 I-0.370 J1.619 K0.000 F500.000
G2 X284.391 Y66.372 Z-6.340 I1.620 J0.364 K0.000 F500.000
G2 X284.748 Y66.411 Z-6.340 I0.358 J-1.622 K0.000 F500.000
G1 X284.748 Y66.411 Z-9.510 F250.000
G2 X285.120 Y63.131 Z-9.510 I0.002 J-1.661 K0.000 F500.000
G2 X283.129 Y64.386 Z-9.510 I-0.370 J1.619 K0.000 F500.000
G2 X284.391 Y66.372 Z-9.510 I1.620 J0.364 K0.000 F500.000
G2 X284.748 Y66.411 Z-9.510 I0.358 J-1.622 K0.000 F500.000
G1 X284.748 Y66.411 Z-10.000 F250.000
G2 X285.120 Y63.131 Z-10.000 I0.002 J-1.661 K0.000 F500.000
G2 X283.129 Y64.386 Z-10.000 I-0.370 J1.619 K0.000 F500.000
G2 X284.391 Y66.372 Z-10.000 I1.620 J0.364 K0.000 F500.000
G2 X284.748 Y66.411 Z-10.000 I0.358 J-1.622 K0.000 F500.000
G0 Z5.000
G0 Z5.000
G0 X284.748 Y66.411
G0 X284.750 Y16.411
G0 X284.750 Y16.411 Z3.000
G1 X284.750 Y16.411 Z-3.170 F250.000
G2 X285.109 Y13.128 Z-3.170 I0.000 J-1.661 K0.000 F500.000
G2 X283.128 Y14.391 Z-3.170 I-0.359 J1.622 K0.000 F500.000
G2 X284.391 Y16.372 Z-3.170 I1.622 J0.359 K0.000 F500.000
G2 X284.750 Y16.411 Z-3.170 I0.359 J-1.622 K0.000 F500.000
G1 X284.750 Y16.411 Z-6.340 F250.000
G2 X285.109 Y13.128 Z-6.340 I0.000 J-1.661 K0.000 F500.000
G2 X283.128 Y14.391 Z-6.340 I-0.359 J1.622 K0.000 F500.000
G2 X284.391 Y16.372 Z-6.340 I1.622 J0.359 K0.000 F500.000
G2 X284.750 Y16.411 Z-6.340 I0.359 J-1.622 K0.000 F500.000
G1 X284.750 Y16.411 Z-9.510 F250.000
G2 X285.109 Y13.128 Z-9.510 I0.000 J-1.661 K0.000 F500.000
G2 X283.128 Y14.391 Z-9.510 I-0.359 J1.622 K0.000 F500.000
G2 X284.391 Y16.372 Z-9.510 I1.622 J0.359 K0.000 F500.000
G2 X284.750 Y16.411 Z-9.510 I0.359 J-1.622 K0.000 F500.000
G1 X284.750 Y16.411 Z-10.000 F250.000
G2 X285.109 Y13.128 Z-10.000 I0.000 J-1.661 K0.000 F500.000
G2 X283.128 Y14.391 Z-10.000 I-0.359 J1.622 K0.000 F500.000
G2 X284.391 Y16.372 Z-10.000 I1.622 J0.359 K0.000 F500.000
G2 X284.750 Y16.411 Z-10.000 I0.359 J-1.622 K0.000 F500.000
G0 Z5.000
G0 Z5.000
(Finish operation: Holes)
(Begin operation: Cutout)
(Path: Cutout)
(Cutout)
(Compensated Tool Path. Diameter: 3.17)
G0 Z5.000
G0 X299.654 Y179.655
G0 Z3.000
G1 X299.654 Y179.655 Z-2.000 F250.000
G2 X301.582 Y175.096 Z-2.000 I-4.658 J-4.657 K0.000 F500.000
G1 X301.585 Y5.000 Z-2.000 F500.000
G2 X295.096 Y-1.582 Z-2.000 I-6.587 J0.004 K0.000 F500.000
G1 X5.000 Y-1.585 Z-2.000 F500.000
G2 X-1.582 Y4.904 Z-2.000 I0.004 J6.587 K0.000 F500.000
G1 X-1.585 Y175.000 Z-2.000 F500.000
G2 X4.904 Y181.582 Z-2.000 I6.587 J-0.004 K0.000 F500.000
G1 X295.000 Y181.585 Z-2.000 F500.000
G2 X299.654 Y179.655 Z-2.000 I-0.004 J-6.587 K0.000 F500.000
G1 X299.654 Y179.655 Z-4.000 F250.000
G2 X301.582 Y175.096 Z-4.000 I-4.658 J-4.657 K0.000 F500.000
G1 X301.585 Y5.000 Z-4.000 F500.000
G2 X295.096 Y-1.582 Z-4.000 I-6.587 J0.004 K0.000 F500.000
G1 X5.000 Y-1.585 Z-4.000 F500.000
G2 X-1.582 Y4.904 Z-4.000 I0.004 J6.587 K0.000 F500.000
G1 X-1.585 Y175.000 Z-4.000 F500.000
G2 X4.904 Y181.582 Z-4.000 I6.587 J-0.004 K0.000 F500.000
G1 X295.000 Y181.585 Z-4.000 F500.000
G2 X299.654 Y179.655 Z-4.000 I-0.004 J-6.587 K0.000 F500.000
G1 X299.654 Y179.655 Z-6.000 F250.000
G2 X301.582 Y175.096 Z-6.000 I-4.658 J-4.657 K0.000 F500.000
G1 X301.585 Y5.000 Z-6.000 F500.000
G2 X295.096 Y-1.582 Z-6.000 I-6.587 J0.004 K0.000 F500.000
G1 X5.000 Y-1.585 Z-6.000 F500.000
G2 X-1.582 Y4.904 Z-6.000 I0.004 J6.587 K0.000 F500.000
G1 X-1.585 Y175.000 Z-6.000 F500.000
G2 X4.904 Y181.582 Z-6.000 I6.587 J-0.004 K0.000 F500.000
G1 X295.000 Y181.585 Z-6.000 F500.000
G2 X299.654 Y179.655 Z-6.000 I-0.004 J-6.587 K0.000 F500.000
G1 X299.654 Y179.655 Z-8.000 F250.000
G2 X301.582 Y175.096 Z-8.000 I-4.658 J-4.657 K0.000 F500.000
G1 X301.585 Y5.000 Z-8.000 F500.000
G2 X295.096 Y-1.582 Z-8.000 I-6.587 J0.004 K0.000 F500.000
G1 X5.000 Y-1.585 Z-8.000 F500.000
G2 X-1.582 Y4.904 Z-8.000 I0.004 J6.587 K0.000 F500.000
G1 X-1.585 Y175.000 Z-8.000 F500.000
G2 X4.904 Y181.582 Z-8.000 I6.587 J-0.004 K0.000 F500.000
G1 X295.000 Y181.585 Z-8.000 F500.000
G2 X299.654 Y179.655 Z-8.000 I-0.004 J-6.587 K0.000 F500.000
G1 X299.654 Y179.655 Z-10.000 F250.000
G2 X301.582 Y175.096 Z-10.000 I-4.658 J-4.657 K0.000 F500.000
G1 X301.585 Y5.000 Z-10.000 F500.000
G2 X295.096 Y-1.582 Z-10.000 I-6.587 J0.004 K0.000 F500.000
G1 X5.000 Y-1.585 Z-10.000 F500.000
G2 X-1.582 Y4.904 Z-10.000 I0.004 J6.587 K0.000 F500.000
G1 X-1.585 Y175.000 Z-10.000 F500.000
G2 X4.904 Y181.582 Z-10.000 I6.587 J-0.004 K0.000 F500.000
G1 X295.000 Y181.585 Z-10.000 F500.000
G2 X299.654 Y179.655 Z-10.000 I-0.004 J-6.587 K0.000 F500.000
G0 Z5.000
G0 Z5.000
(Finish operation: Cutout)
(Begin postamble)
M5
G17 G90
M2
